X:1
T:Title
%%score { ( 1 3 ) | 2 }
L:1/8
M:4/4
K:Ab
V:1 treble nm="Grand Piano"
V:3 treble 
V:2 bass 
V:1
 z4 z2[Q:1/4=112] [CE][CE] | [CA]2 [CA]>[DB] [CA]2 [CE]2 | c2 c>d c3 d | e e3 AA c2 | B6 EE | %5
 [CA]2 [CA]>[DB] [CA]2 [CE][CE] |[M:3/4] c2 c>d c2 |[M:1/4] [Ec]2 | %8
[M:4/4] [EB] [EB]3 [Ge][Ge] [A=d]2 | [Ge]6 E2 | d2 d>d d2 Bd | c2 c>c c3 [EB] | %12
 [FA]2 [FA]>[FA] [EA]2 [DG][CA] | B2 B>c B3 E | [CA]2 [EA][EA] B2 BB | c2 cc [Fd]2 [A=d]2 | %16
 [Ae] A3 cc B2 | [CA]6 z2 | z [Ec]3- [Ec]2 z2 | [A,B,=D][A,B,D] [DB]2 [DB]4 | z [DB]3- [DB]2 z2 | %21
 [DB][DB] [CA]2 [CE]2 [CE][CE] | [CA]2 [EA][EA] B2 BB | c2 cc [Fd]2 [A=d]2 | [Ae] A3 cc B2 | %25
[M:8/4] [CA]8 z8 |] %26
V:2
 z4 z2 [A,,A,][A,,A,] | [A,,E,]2 [A,,E,]>[A,,E,] [A,,E,]2 [A,,A,]2 | %2
 [A,E]2 [A,E]>[A,F] [A,E]3 [A,B,E] | [A,CE] [A,CE]3 [A,C][A,C] [A,E]2 | [E,G,E]6 [E,G,][E,G,D] | %5
 [A,,A,]2 [A,,E,]>[A,,E,] [A,,E,]2 [A,,A,][A,,A,] | %6
[M:3/4][K:treble] [A,E]2 [A,E]>[A,F][K:bass] [A,E]2 |[M:1/4] [A,,A,]2 | %8
[M:4/4] [B,,G,] [B,,G,]3 [B,,B,][B,,B,] [B,,B,]2 | [E,B,]6 [E,G,]2 | %10
 [E,B,E]2 [E,B,E]>[E,B,E] [E,B,E]2 [E,G,E][E,B,E] | [A,E]2 [A,E]>[A,E] [A,E]3 [C,A,] | %12
 [D,A,]2 [D,A,]>[D,A,] [C,A,]2 [B,,E,][A,,A,] | [E,G,E]2 [E,G,E]>[E,A,E] [E,G,E]3 [E,G,D] | %14
 [A,,A,]2 [C,A,][C,A,] [E,G,E]2 [E,G,E][E,G,E] | [A,E]2 [A,_G][A,G][K:bass] [D,A,]2 [F,_C]2 | %16
 [E,C] [E,CE]3 [E,A,E][E,A,E] [E,G,D]2 | [A,,A,]6 z2 | [A,,A,][A,,A,] A,,2 A,,2 A,,2 | %19
 B,,B,, [B,,A,]2 [B,,A,]4 | [E,G,][E,G,] E,2 E,2 [E,G,E]2 | %21
 [A,,A,][A,,A,] [A,,A,]2 [A,,A,]2 [A,,A,][A,,A,] | [A,,A,]2 [C,A,][C,A,] [E,G,E]2 [E,G,E][E,G,E] | %23
 [A,E]2 [A,_G][A,G][K:bass] [D,A,]2 [F,_C]2 | [E,C] [E,CE]3 [E,A,E][E,A,E] [E,G,D]2 | %25
[M:8/4] [A,,A,]8 z8 |] %26
V:3
 x8 | x8 | x8 | x8 | x8 | x8 |[M:3/4] x6 |[M:1/4] x2 |[M:4/4] x8 | x8 | x8 | x8 | x8 | x8 | x8 | %15
 x8 | x8 | x8 | .[CE]2 A,2 A,2 [A,CE]2 | x8 | .[DE]2 G,2 G,2 c2 | x8 | x8 | x8 | x8 |[M:8/4] x16 |] %26

